libs/icons/src/svg/custom-field.svg

<svg width="16" height="16" viewBox="0 0 16 16" fill="none" xmlns="http://www.w3.org/2000/svg">
<g clip-path="url(#clip0_3_3714)">
<path fill-rule="evenodd" clip-rule="evenodd" d="M7.68114 0.666512C7.92385 0.666512 8.14552 0.813843 8.25295 1.04656L10.075 4.99359L14.1496 5.62663C14.3899 5.66395 14.5894 5.84386 14.6644 6.09071C14.7394 6.33756 14.6769 6.60854 14.503 6.7897L12.59 8.78347C12.3378 9.04631 11.9341 9.04077 11.6883 8.7711C11.4424 8.50142 11.4476 8.06972 11.6998 7.80688L12.6875 6.77751L9.55988 6.2916C9.3522 6.25933 9.17265 6.11986 9.07976 5.91863L7.68114 2.88887L6.28252 5.91863C6.18962 6.11986 6.01008 6.25933 5.80239 6.2916L2.67466 6.77753L4.93785 9.13654C5.08813 9.29318 5.15671 9.51886 5.12124 9.74003L4.58709 13.0711L6.1091 12.2157C6.42084 12.0405 6.80639 12.1687 6.97024 12.5021C7.13409 12.8354 7.0142 13.2477 6.70246 13.4229L4.03695 14.9209C3.82211 15.0417 3.56179 15.0215 3.36543 14.869C3.16908 14.7164 3.07074 14.4579 3.11176 14.2021L3.80757 9.86286L0.859207 6.78967C0.685397 6.6085 0.622847 6.33753 0.697858 6.09069C0.772869 5.84385 0.97243 5.66395 1.21264 5.62663L5.28727 4.99359L7.10932 1.04656C7.21676 0.813843 7.43843 0.666512 7.68114 0.666512ZM8.31881 14.6514C8.31881 14.2749 8.60431 13.9696 8.95649 13.9696H14.6956C15.0478 13.9696 15.3333 14.2749 15.3333 14.6514C15.3333 15.028 15.0478 15.3333 14.6956 15.3333H8.95649C8.60431 15.3333 8.31881 15.028 8.31881 14.6514ZM8.95649 10.5601C8.60431 10.5601 8.31881 10.8653 8.31881 11.2419C8.31881 11.6185 8.60431 11.9238 8.95649 11.9238H14.6956C15.0478 11.9238 15.3333 11.6185 15.3333 11.2419C15.3333 10.8653 15.0478 10.5601 14.6956 10.5601H8.95649Z" fill="#202327"/>
</g>
<defs>
<clipPath id="clip0_3_3714">
<rect width="16" height="16" fill="white"/>
</clipPath>
</defs>
</svg>

<svg xmlns="http://www.w3.org/2000/svg" viewBox="0 0 16 16" class="sageicon"><path fill-rule="evenodd" d="M7.681.667c.243 0 .465.147.572.38l1.822 3.947 4.075.633c.24.037.44.217.514.464a.715.715 0 0 1-.161.699L12.59 8.783a.609.609 0 0 1-.902-.012.716.716 0 0 1 .012-.964l.988-1.03-3.128-.485a.642.642 0 0 1-.48-.373L7.68 2.889l-1.398 3.03a.642.642 0 0 1-.48.373l-3.128.486 2.263 2.359c.15.156.219.382.183.603l-.534 3.331 1.522-.855c.312-.175.697-.047.861.286.164.333.044.746-.268.92l-2.665 1.499a.603.603 0 0 1-.672-.052.705.705 0 0 1-.253-.667l.696-4.34L.859 6.79a.715.715 0 0 1-.161-.7.651.651 0 0 1 .515-.463l4.074-.633L7.11 1.047a.635.635 0 0 1 .572-.38ZM8.32 14.65c0-.376.285-.681.637-.681h5.74c.352 0 .637.305.637.681 0 .377-.285.682-.637.682h-5.74c-.352 0-.637-.305-.637-.682Zm.637-4.09c-.352 0-.637.304-.637.68 0 .377.285.683.637.683h5.74c.352 0 .637-.306.637-.682 0-.377-.285-.682-.637-.682h-5.74Z"/></svg>
